X:1
T:New Stranger Blues
M:4/4
L:1/8
K:G
 _BB| _B2- B=B G2-G-B| _B2 A/2 G3/2 A G- G2| =B8-| B6 _BB| _BG-G-E|\
 G4| G2 G2 G2 G2|E-D D6| z4 z2 _BB| A2 AG AG AG| _BB AG BG-G G| G8|\
 z4 z2||
